X: 100371
T: MOUNT SHASTA HORNPIPE
R: hornpipe
B: K\"ohler's Violin Repository, v.3, 1885 p.248 #2
F: http://www.archive.org/details/klersviolinrepos03rugg
Z: 2012 John Chambers <jc:trillian.mit.edu>
M: C|
L: 1/8
K: A
|:\
vE>E(A>c) B>A(c>e) | f2e>c f2e>c | a2g>f (e>c)A>c | (G>A)B>c d2c>A |
 E>E(A>c) B>A(c>e) | f2e>c (d>e)f>g | (a>e)c>A (e>d)B>c | A2(.c2 .A2)z2 :|
|:\
vB>e ((3e^de) (f>e)g>f | (e>c)B>G E4 | B,>E ((3EDE) (F>E)G>E | B,>E ((3EDE) (F>E)G>E |
 B>e ((3e^de) (f>e)g>e | (b>g)e>g a2b>a | (g>f)e>g (f>e)^d>f |[1 e2(.g2 .e2)z2 :|[2 (e^d)ef (e=d)B"^D.C."G |]

%%sep 2 1 500

